resources/svg/book-bookmark-duotone.svg

<svg xmlns="http://www.w3.org/2000/svg" viewBox="0 0 256 256" fill="currentColor"><g opacity="0.2"><path d="M176.00244,32v96l-32.00732-24-31.99268,24V32h-40a23.99994,23.99994,0,0,0-24,24V216a23.99994,23.99994,0,0,1,24-24h136V32Z"/></g><path d="M208.00244,24h-136a32.03667,32.03667,0,0,0-32,32V224a8.00039,8.00039,0,0,0,8,8h144a8,8,0,0,0,0-16h-136a16.01833,16.01833,0,0,1,16-16h136a8.00039,8.00039,0,0,0,8-8V32A8.00039,8.00039,0,0,0,208.00244,24Zm-88,16h48V112.002l-19.209-14.40234a7.998,7.998,0,0,0-9.59961.001l-19.19141,14.39746Zm80,144h-128a31.80291,31.80291,0,0,0-16,4.29492V56a16.01833,16.01833,0,0,1,16-16h32v88a8.00031,8.00031,0,0,0,12.80078,6.39941L143.99561,114l27.208,20.40039A7.9996,7.9996,0,0,0,184.00244,128V40h16Z"/></svg>

<svg xmlns="http://www.w3.org/2000/svg" viewBox="0 0 256 256" fill="currentColor"><g opacity="0.2"><path d="M176,32v96l-32-24-32,24V32H72A23.9,23.9,0,0,0,48,56V216a23.9,23.9,0,0,1,24-24H208V32Z"/></g><path d="M208,24H72A32.1,32.1,0,0,0,40,56V224a8,8,0,0,0,8,8H192a8,8,0,0,0,0-16H56a16,16,0,0,1,16-16H208a8,8,0,0,0,8-8V32A8,8,0,0,0,208,24ZM120,40h48v72L148.8,97.6a8.1,8.1,0,0,0-9.6,0L120,112Zm80,144H72a32.2,32.2,0,0,0-16,4.3V56A16,16,0,0,1,72,40h32v88a8,8,0,0,0,12.8,6.4L144,114l27.2,20.4A7.7,7.7,0,0,0,176,136a9.4,9.4,0,0,0,3.6-.8A8.2,8.2,0,0,0,184,128V40h16Z"/></svg>
